packages/icons/brands/RSS3.svg

<svg width="24" height="24" viewBox="0 0 24 24" fill="none" xmlns="http://www.w3.org/2000/svg">
<path d="M16.8363 12.5414C16.4987 12.0401 15.6845 11.7732 15.1018 11.6159C15.0339 11.598 14.9632 11.5801 14.8881 11.5615H14.8822C14.5684 11.482 14.2121 11.3943 13.9349 11.2437C13.6171 11.0697 13.4614 10.8441 13.4614 10.5542C13.4611 10.5071 13.4655 10.4602 13.4745 10.414V10.4056C13.479 10.3843 13.4846 10.3632 13.4912 10.3425C13.4919 10.3397 13.4929 10.3369 13.494 10.3341V10.331C13.535 10.2107 13.6039 10.1019 13.695 10.0132C13.9305 9.7749 14.3062 9.64104 14.7277 9.64104H14.7408C15.051 9.64789 15.3564 9.71974 15.6372 9.85195C15.9178 9.97931 16.1714 10.1592 16.3843 10.3818L16.3895 10.9859V10.9923H16.9138V9.17315H16.3907V9.58544C16.3907 9.58845 16.3899 9.59142 16.3885 9.59406C16.387 9.5967 16.3849 9.59892 16.3824 9.60053C16.3776 9.60053 16.3712 9.59735 16.3681 9.59418C16.1465 9.42577 15.9001 9.29297 15.6376 9.20056C15.3562 9.10421 15.0613 9.053 14.7638 9.04883C14.4226 9.04883 14.1438 9.08855 13.911 9.16441C13.7175 9.22893 13.5376 9.32902 13.3808 9.45953C13.2103 9.59275 13.0733 9.764 12.9808 9.95959C12.8914 10.1481 12.8445 10.3539 12.8434 10.5625C12.8408 10.686 12.8562 10.8093 12.889 10.9283C12.9296 11.0602 12.9899 11.1851 13.0678 11.2989C13.0745 11.3097 13.0825 11.32 13.0896 11.3303C13.0968 11.3406 13.0972 11.3402 13.1008 11.3454L13.1055 11.3518C13.4491 11.8264 14.2161 12.0365 14.7757 12.191L14.7912 12.195L14.9155 12.2296L15.0502 12.2657C15.3418 12.3371 15.6272 12.4322 15.9033 12.5501C16.0475 12.6136 16.1747 12.71 16.2747 12.8317C16.3673 12.9445 16.43 13.0788 16.457 13.2221C16.4833 13.3651 16.4725 13.5124 16.4257 13.6499C16.3707 13.8083 16.2798 13.9518 16.1599 14.069C16.0285 14.186 15.8742 14.2744 15.7067 14.3287C15.5439 14.3812 15.3748 14.4116 15.2039 14.4189C14.9304 14.4321 14.6565 14.4011 14.3928 14.3271C13.946 14.1857 13.5381 13.9129 13.2735 13.5796C13.2647 13.5688 13.2581 13.5564 13.2541 13.5431L13.2489 13.0235V13.0168H12.7246V14.9186H13.2493V14.3625C13.4684 14.5553 13.7224 14.7045 13.9976 14.8018C14.3194 14.9204 14.6585 14.9851 15.0013 14.9932H15.0438C15.335 14.9932 16.0161 14.9932 16.5504 14.5408C16.6983 14.4128 16.8208 14.2582 16.9114 14.0848C16.9986 13.918 17.0555 13.737 17.0794 13.5502C17.1039 13.3713 17.0955 13.1895 17.0548 13.0136C17.0164 12.8425 16.9419 12.6815 16.8363 12.5414Z" fill="currentColor"/>
<path d="M11.6589 12.5413C11.328 12.0425 10.5106 11.7744 9.92435 11.6163C9.85762 11.5988 9.78851 11.5817 9.71503 11.5635C9.07952 11.4066 8.28832 11.2107 8.27918 10.5526C8.27916 10.4535 8.30015 10.3555 8.34075 10.265C8.38451 10.17 8.44537 10.0839 8.52028 10.0108C8.75859 9.77569 9.13235 9.64065 9.55059 9.64065H9.5637C9.87374 9.64736 10.1789 9.71922 10.4594 9.85155C10.7388 9.97869 10.991 10.1586 11.2021 10.3814L11.2124 10.9855V10.9923H11.7367V9.17315H11.2136V9.58544C11.2136 9.5884 11.2129 9.59132 11.2115 9.59394C11.2101 9.59657 11.2081 9.59883 11.2057 9.60053C11.2017 9.60053 11.197 9.60053 11.191 9.59417C10.9695 9.42577 10.723 9.29297 10.4606 9.20056C10.1791 9.10421 9.88419 9.053 9.58674 9.04883C9.24356 9.04883 8.96394 9.08855 8.73198 9.16441C8.53908 9.22909 8.35993 9.32917 8.20371 9.45953C8.03322 9.59274 7.89625 9.76399 7.80374 9.95959C7.71382 10.1485 7.66662 10.3549 7.66552 10.5641C7.66299 10.6874 7.6781 10.8105 7.7104 10.9295C7.75002 11.0605 7.80863 11.185 7.88437 11.2989C8.21364 11.8121 9.01915 12.0325 9.60739 12.1938L9.62129 12.1974L9.73807 12.2295L9.8612 12.2625L9.87272 12.2657C10.1644 12.337 10.4497 12.4321 10.7259 12.5501C10.8705 12.6146 10.9983 12.7116 11.0992 12.8337C11.1922 12.9477 11.2551 13.0831 11.2824 13.2277C11.3083 13.3709 11.297 13.5183 11.2498 13.6559C11.1944 13.8142 11.1029 13.9574 10.9825 14.0741C10.8519 14.1908 10.6981 14.2787 10.5313 14.3319C10.3681 14.3841 10.1985 14.4138 10.0272 14.4201C9.99188 14.4201 9.95494 14.4224 9.9176 14.4224C9.67822 14.423 9.4399 14.3906 9.20941 14.3259C9.18279 14.3176 9.15578 14.3085 9.12997 14.2989H9.126C9.07237 14.2799 9.01875 14.2592 8.96712 14.235C8.70793 14.1214 8.47086 13.9628 8.26687 13.7667L8.25654 13.7568C8.22477 13.725 8.19259 13.6912 8.16161 13.6559L8.13778 13.6285C8.12388 13.6122 8.11037 13.5963 8.09806 13.5796C8.08951 13.5688 8.08305 13.5566 8.079 13.5435L8.07383 13.0239V13.0172H7.54199V14.9189H8.07185V14.3629C8.29096 14.5557 8.54497 14.7048 8.82016 14.8022C9.1419 14.9208 9.48103 14.9855 9.82386 14.9936H9.86636C10.1559 14.9936 10.8339 14.9936 11.3729 14.5412C11.5208 14.4132 11.6433 14.2585 11.734 14.0852C11.8211 13.9194 11.8783 13.7395 11.9028 13.5538C11.9272 13.3749 11.9189 13.1931 11.8781 13.0172C11.8398 12.8448 11.7651 12.6825 11.6589 12.5413Z" fill="currentColor"/>
<path d="M6.28153 14.4664L4.84846 12.2997C5.09127 12.309 5.33296 12.2621 5.55467 12.1627C5.86806 12.0038 6.11988 11.8024 6.27438 11.5045C6.39996 11.2586 6.46504 10.9863 6.46424 10.7102C6.46395 10.2758 6.29273 9.85906 5.98761 9.54996C5.65635 9.24968 5.24287 9.10352 4.72295 9.10352H1.94617V9.70288H2.5356V14.4736H1.89453V14.9748H3.75538V14.4736H3.15602V12.3085H4.15893L5.56301 14.4736H4.92512V14.9748H6.92777V14.4736H6.30139C6.29777 14.4738 6.29414 14.4733 6.29072 14.472C6.28731 14.4708 6.28418 14.4689 6.28153 14.4664ZM3.15602 9.67587H4.69196C5.16383 9.67587 5.52607 9.86335 5.70957 10.1855C5.79794 10.3472 5.84286 10.5291 5.83994 10.7134C5.83701 10.8976 5.78635 11.078 5.69289 11.2368C5.50462 11.5546 5.28219 11.7302 4.78888 11.7302H3.15602V9.67587Z" fill="currentColor"/>
<path d="M21.8638 13.2388C21.8638 12.5195 21.5004 12 20.8974 11.7772C21.4086 11.5087 21.6342 11.067 21.6342 10.6122C21.6342 9.56242 20.7536 9.00635 19.6054 9.00635C18.9786 9.01111 18.3105 9.21964 17.8542 9.86031L18.3308 10.1713C18.5862 9.82774 18.95 9.56242 19.6054 9.56242C20.4395 9.56242 21.0313 9.90122 21.0313 10.5463C21.0313 11.1643 20.4379 11.5087 19.8302 11.5087H19.0024V12.1045H19.8782C20.6532 12.1045 21.2656 12.5219 21.2466 13.2321C21.2033 13.9868 20.5384 14.3923 19.6677 14.3923C19.1077 14.3923 18.4857 14.2159 18.0214 13.7194L17.9975 13.7103L17.5908 14.1556L17.6099 14.1603C18.1938 14.7081 18.8876 14.9913 19.6677 14.9913C20.8688 14.9889 21.8638 14.3391 21.8638 13.2388Z" fill="currentColor"/>
<path d="M1.50854 11.7266H0V12.3426H1.50854V11.7266Z" fill="#0B70FF"/>
<path d="M23.9998 11.7266H22.4912V12.3426H23.9998V11.7266Z" fill="#0B70FF"/>
</svg>

<svg xmlns="http://www.w3.org/2000/svg" fill="none" viewBox="0 0 24 24">
    <path fill="currentColor" d="M16.836 12.541c-.337-.5-1.151-.768-1.734-.925a14.756 14.756 0 0 0-.214-.054h-.006c-.314-.08-.67-.168-.947-.318-.318-.174-.474-.4-.474-.69a.71.71 0 0 1 .014-.14v-.008a.65.65 0 0 1 .019-.072v-.003c.041-.12.11-.23.201-.318.236-.238.611-.372 1.033-.372h.013c.31.007.615.079.896.211.28.127.534.307.747.53l.006.604v.006h.524V9.173h-.523v.412l-.002.01a.019.019 0 0 1-.007.006.023.023 0 0 1-.014-.007 2.676 2.676 0 0 0-1.604-.545c-.341 0-.62.04-.853.115a1.64 1.64 0 0 0-.53.296c-.17.133-.308.304-.4.5a1.424 1.424 0 0 0-.092.968 1.306 1.306 0 0 0 .201.402l.01.015.005.007c.344.474 1.111.684 1.67.839l.016.004.124.035.135.036c.292.071.577.166.853.284.144.064.272.16.372.282a.85.85 0 0 1 .151.818 1.082 1.082 0 0 1-.266.419 1.27 1.27 0 0 1-.453.26 1.903 1.903 0 0 1-.503.09 2.548 2.548 0 0 1-.811-.092 2.363 2.363 0 0 1-1.12-.747.106.106 0 0 1-.019-.037l-.005-.52v-.006h-.524v1.902h.524v-.556c.22.192.473.341.749.439.321.118.66.183 1.003.191h.043c.291 0 .972 0 1.506-.452a1.556 1.556 0 0 0 .53-.99c.024-.18.016-.361-.025-.537a1.233 1.233 0 0 0-.219-.473Zm-5.177 0c-.331-.498-1.148-.767-1.735-.925l-.209-.053c-.635-.156-1.427-.352-1.436-1.01 0-.1.021-.198.062-.288a.855.855 0 0 1 .18-.254c.238-.235.611-.37 1.03-.37h.013a2.2 2.2 0 0 1 .895.21c.28.128.532.308.743.53l.01.604v.007h.525V9.173h-.523v.412l-.003.009a.02.02 0 0 1-.005.007c-.004 0-.009 0-.015-.007a2.675 2.675 0 0 0-1.604-.545c-.343 0-.623.04-.855.115a1.637 1.637 0 0 0-.528.296 1.424 1.424 0 0 0-.493 1.47c.039.13.098.255.173.369.33.513 1.135.734 1.723.895l.014.003.117.033.123.032.012.004c.291.071.577.166.853.284.144.065.272.162.373.284a.852.852 0 0 1 .15.822 1.078 1.078 0 0 1-.267.418c-.13.117-.284.205-.45.258a1.882 1.882 0 0 1-.505.088l-.11.002a2.572 2.572 0 0 1-.708-.096 1.574 1.574 0 0 1-.079-.027h-.004a2.402 2.402 0 0 1-.86-.532l-.01-.01a2.152 2.152 0 0 1-.094-.101l-.024-.027a.89.89 0 0 1-.04-.05.11.11 0 0 1-.019-.036l-.005-.52v-.006h-.532v1.902h.53v-.556c.219.193.473.342.748.44.322.118.661.182 1.004.19h.042c.29 0 .968 0 1.507-.452a1.59 1.59 0 0 0 .53-.987c.024-.18.016-.36-.025-.537a1.239 1.239 0 0 0-.22-.476Zm-5.377 1.925L4.848 12.3c.243.009.485-.038.707-.137.313-.16.565-.36.72-.659a1.75 1.75 0 0 0 .19-.794 1.659 1.659 0 0 0-.477-1.16c-.332-.3-.745-.446-1.265-.446H1.946v.599h.59v4.77h-.641v.502h1.86v-.501h-.599v-2.165h1.003l1.404 2.165h-.638v.5h2.003v-.5H6.3c-.003 0-.007 0-.01-.002a.026.026 0 0 1-.01-.006Zm-3.126-4.79h1.536c.472 0 .834.187 1.018.51a1.066 1.066 0 0 1-.017 1.05c-.188.319-.41.494-.904.494H3.156V9.676Zm18.708 3.563c0-.72-.364-1.239-.967-1.462.512-.268.737-.71.737-1.165 0-1.05-.88-1.606-2.029-1.606-.626.005-1.294.214-1.75.854l.476.311c.255-.343.619-.609 1.274-.609.834 0 1.426.34 1.426.984 0 .618-.593.963-1.2.963h-.829v.595h.876c.775 0 1.388.418 1.369 1.128-.044.755-.709 1.16-1.58 1.16-.56 0-1.181-.176-1.646-.673l-.024-.009-.406.446.019.004c.584.548 1.278.831 2.058.831 1.2-.002 2.196-.652 2.196-1.752Z"/>
    <path fill="#0B70FF" d="M1.509 11.727H0v.616h1.509v-.616Zm22.491 0h-1.51v.616H24v-.616Z"/>
</svg>
